X:1
T:In virtute tua
T:M. Haller
C:M. Haller
%%score [ ( 1 2 ) ( 3 4 ) ]
L:1/8
Q:1/4=80
M:4/4
K:Bb
V:1 treble nm="P1"
V:2 treble 
V:3 bass nm="P2"
V:4 bass 
V:1
!p!"^Andante""^In virtute tua" F6 F2 | %1
w: In vir-|
w: |
w: |
 B2 F2 G2"^(XII. Offertorium pro festa Confessoris non Pontificis)" F2 | E3 E D2 F2 | %3
w: tu- te tu- a,|Do- mi- ne, lae-|
w: ||
w: |* * * lae-|
!<(! (GF"^-"G!<)!A BA"^-"Bc |"^-" d3) d d4 |"^-""^-""^-""^-""^-" c8 |!>(! c4!>)! z2 c2 | %7
w: ta- * * bi- tur, * lae- *|ta- bi- tur||stus, *|
w: ||||
w: ta- * * * * * * *|* bi- tur|ju-|stus, *|
 B2 c2 d3 c |!>(! B2 A2!>)! G4 | F2!<(! B4!<)! A2 | d4"^-""^-" c4 |"^-" (Bc"^-"de"^-" f3) e | %12
w: su- per sa- lu-|ta- re tu-|um ex- sul-|ta- bit,|* * ex- * bit, sul-|
w: |||||
w: ||||ex- * * * * sul-|
 d2 B2 e2 d2 |!>(! (c2 BA"^-""^-" G4)!>)! | ^F4!mf! z2 GG | A2 BB c2 dd | e4 d2 dc | B2 cc d2 ee | %18
w: ta- bit ve- he-|men- * * *|ter: * si-|de- ri- um a- ni- mae|e- jus, de- si-|de- ri- um a- ni- mae|
w: ||||||
w: ta- bit * *||||||
 (f3 e) d2 fe | (d3 c"^-" B2) c2 | (A2"^-""^-" B4"^-""^-" A2) | B2 f4 e2 | (d2 c2"^-" B2) c2 | %23
w: e- * jus tri- bu-|i- tri- i- sti|e- * *|i, tri- bu-|i- bu- sti sti|
w: |||||
w: |||* tri- bu-|i- * * sti|
 (A4"^-""^-""^-" B4- |"^-""^-""^-""^-" B4"^-""^-""^-" A4) |"^-""^-" (B8 | %26
w: e- *||i,|
w: |||
w: e- *||i.|
"^-""^-""^-" !fermata!B8) ||[M:3/2]"^Più vivo" z12 | B4 B4 c4 | B4 d4 e4 | (f6"^-""^-" ed c4) | %31
w: i.||ja, al- le-|lu- ja, al-|le- * * lu-|
w: |||||
w: _||Al- le- lu-|ja, al- le-|lu- * * *|
 B4 c4 d4 | e12 | !fermata!d12 |] %34
w: ja, al- le-|lu-|ja.|
w: |||
w: ja, * *|||
V:2
 D6 D2 | D2 D2 B,2 D2 | CB, G,A, B,2 F2 | E3 E D2 G2 | F3 F F2 (B2- | B2 A2 G4) | A4 x2 A2 | %7
w: |||||||
w: |||||||
 G2 F2 F3 F | D2 F2 E4 | D4 E2 E2 | F4 F4- | F2 B4 A2 | B2 B2 B3 A | (G2 F2 E2 C2) | D4 x2 DD | %15
w: ||||||||
w: ||* ex- sul-||||||
 F2 GF G2 GG | G4 ^F2 FF | G2 AA B2 BB | (B2 A2) B2 AA | (B2 A2 G2) G2 | F8 | F4 A2 A2 | %22
w: |||||||
w: |||* * * tri- bu-||||
 (B2 A2) G4 | (F8 | G4 F2 E2 | D4 G4) | F8 ||[M:3/2] F4 F4 G4 | F4 D4 F4 | F4 B4 G4 | (F6 G2) A4 | %31
w: |||||||||
w: |||||||||
 B4 A4 B4 | B12 | B12 |] %34
w: |||
w: |||
V:3
!p!!p! B,6 B,2 | B,2 A,2 G,2 B,2 | G,2 E,2 F,4 | z4 z2"^-" E2 | D3 D F4 | (=E2"^-" F4"^-" E2) | %6
w: * In|tu- te tu- a,|Do- * mi-||* bi- tur|ju- * *|
 F4 z2 F2 | D2 C2 B,3 A, | B,2 B,2 B,4 | B,4 C2 C2 | (B,CDE F3 E | DE F2) F,4 | F2 D2 B,2 B,2 | %13
w: stus, *||||* * ex- * * sul-|ta- * * bit,|ex- su1- ta- bit|
 C2 (DC) (B,A, G,2) | A,4!mf! z2 B,B, | C2 EF E2 DD | (C3 B,) A,2 DD | D2 FF F2 B,B, | %18
w: ve- he- * men- * *|ter: * *||||
 (C2 F2) F2 z2 |"^-" z2 FE"^-" D2 E2 | (C2"^-" D2"^-" C4) | D4 z4 | F3 E"^-" D2 E2 | (C4"^-" D4 | %24
w: |* * * sti|e- * *|i,|i- * * sti|e- *|
"^-""^-""^-" C8) |"^-" B,4"^-""^-" (E4- | E2 DC) !fermata!D4 ||[M:3/2] D4 D4 E4 | D4 B,4 A,4 | %29
w: ||i. * * *|||
 D4 B,4 B,4 | B,4 (F6 E2) | D4 F4 F4 | [E,G]12 | F12 |] %34
w: |||||
V:4
 z4 B,3 A, | G,2 D,2 E,2 B,,2 | C,3 C, B,,4 | z2!<(! E,2!<)! (G,F,G,A, | B,3) B, B,4 | C8 | %6
w: ||||||
 F,4 x2 F,2 | G,2 A,2 B,3 F, | G,2 D,2 E,4 | B,,4 z4 | z2 B,4!<)!!<(! A,2 | D4 C4 | %12
w: ||||||
 B,3 A, G,2 F,2 | E,2 D,2 E,4 | D,4 x2 G,G, | F,2 E,D, C,2 B,,B,, | C,4 D,2 D,D, | %17
w: |||||
 G,2 F,F, B,2 G,G, | F,4 B,2 DC | (B,2 F,2 G,2) E,2 | F,8 | B,2 D4 C2 | (B,2 F,2 G,2) E,2 | %23
w: ||||||
 (F,3 E, D,4 | E,4 F,4 | G,3 F, E,4) | !fermata!B,,8 ||[M:3/2] B,4 B,4 G,4 | B,4 B,4 F,4 | %29
w: ||||||
 B,4 G,4 E,4 | (D,6 E,2) F,4 | G,4 F,4 B,4 | x12 | !fermata!B,12 |] %34
w: * * al-|le- * lu-|ja, * *|||

